X:205
M:C
L:1/8
K:G
d>cB>A G<G G2:|
d<g ~g2 d>gb>g|a>gb>g e<a ~a2|d<g ~g2 d>gb>g|a>gb>g d<g ~g2|
d<g ~g2 d>gb>g|a>gb>g e<a ~a2|g>be>g d>gB>g|d>cB>A G<G G2||

